X:1
T:Liverpool Judies
B:Hugill, Stan, (1969), Shanties and Sailors Songs, London, Herbert Jenkins
Z:Stan Hugill
F:http://www.folkinfo.org/songs
M:3/4
L:1/8  
K:Ab
C2 |E2 E2 E2 |E2 E2 E2 |F2 G2 E2 |A4
w:When I wuz a young-ster I sailed wid de rest,
A B |c2 c2 c2 |d2 c2 B2 |A2 G2 F2 | E4
w:On a Liv-er-pool pac-ket bound out to the West,
E2 |c2 c2 c2 |d2 c2 B2 |A2 c2 A2 |D4
w:We anchor-ed one day in de har-bour of Cork
C D |E2 E2 E2 |E2 D2 C2 |B,2 A,2 G,2 |A,4
w:Then we put out to sea for the port of New York
C D |E2 F E E2 |E2 F E E2 |E2 F2 G2 |A4
w:Sing-in' ro-o-o-oll, ro-o-o-oll, roll, bul-lies, roll!
C2 |E2 E2 E2 |E2 D2 C2 |B,2 A,2 G,2 | A,4 |]
w:Them Liv-er-pool ju-dies have got us in tow!